Icons/ch_threema_app.svg

<svg viewBox="0 0 48 48" xmlns:xlink="http://www.w3.org/1999/xlink">
 <defs>
  <linearGradient id="0">
   <stop stop-opacity="0"/>
   <stop offset="1"/>
  </linearGradient>
  <linearGradient xlink:href="#0" id="1" gradientUnits="userSpaceOnUse" gradientTransform="translate(4e-7,-48)" y1="47" x2="0" y2="1"/>
  <clipPath id="2">
   <g transform="translate(0,-1004.3622)">
    <rect rx="4" y="1005.36" x="1" height="46" width="46" fill="#1890d0"/>
   </g>
  </clipPath>
  <clipPath id="3">
   <g transform="translate(0,-1004.3622)">
    <rect rx="4" y="1005.36" x="1" height="46" width="46" fill="#1890d0"/>
   </g>
  </clipPath>
 </defs>
 <g>
  <g transform="translate(0,-1004.3622)">
   <path d="m 5,1006.3622 c -2.216,0 -4,1.784 -4,4 l 0,37.25 c 0,2.216 1.784,4 4,4 l 38,0 c 2.216,0 4,-1.784 4,-4 l 0,-37.25 c 0,-2.216 -1.784,-4 -4,-4 l -38,0 z m -4,41.5 0,0.5 c 0,2.216 1.784,4 4,4 l 38,0 c 2.216,0 4,-1.784 4,-4 l 0,-0.5 c 0,2.216 -1.784,4 -4,4 l -38,0 c -2.216,0 -4,-1.784 -4,-4 z" opacity="0.02"/>
   <path d="m 1,1047.6122 0,0.25 c 0,2.216 1.784,4 4,4 l 38,0 c 2.216,0 4,-1.784 4,-4 l 0,-0.25 c 0,2.216 -1.784,4 -4,4 l -38,0 c -2.216,0 -4,-1.784 -4,-4 z" opacity="0.05"/>
   <rect width="46" height="46" x="1" y="1005.61" rx="4" opacity="0.1"/>
  </g>
 </g>
 <g>
  <g transform="translate(0,-1004.3622)">
   <rect rx="4" y="1005.36" x="1" height="46" width="46" fill="#707070"/>
  </g>
 </g>
 <g>
  <rect transform="scale(1,-1)" width="46" height="46" x="1" y="-46.998" rx="4" opacity="0.1" fill="url(#1)"/>
 </g>
 <g>
  <g clip-path="url(#2)">
   <g opacity="0.1">
    <g>
     <path d="M 24 8 C 16.820312 8 11 13.628906 11 20.5625 C 11 24.742188 13.121094 28.40625 16.375 30.6875 C 16.257812 31.167969 16.113281 31.691406 15.875 32.21875 C 15.0625 34.011719 14.25 34 14.25 34 C 14.25 34 16.6875 33.988281 18.3125 33.09375 C 18.65625 32.90625 18.949219 32.621094 19.21875 32.25 C 20.699219 32.816406 22.3125 33.09375 24 33.09375 C 31.179688 33.09375 37 27.496094 37 20.5625 C 37 13.628906 31.179688 8 24 8 Z M 24 13 C 26 13 28 14 28 16 L 28 19 C 29 19 30 19 30 20 L 30 26 C 30 26.589844 29.671875 27 29 27 L 19 27 C 18.328125 27 18 26.589844 18 26 L 18 20 C 18 19 19 19 20 19 L 20 16 C 20 14 22 13 24 13 Z M 24 14 C 22.5 14 21 15 21 17 L 21 19 L 27 19 L 27 17 C 27 15 25.5 14 24 14 Z M 24 14 "/>
     <path d="M 32 36.996094 C 32 38.097656 31.105469 38.988281 30 38.988281 C 28.894531 38.988281 28 38.097656 28 36.996094 C 28 35.894531 28.894531 35 30 35 C 31.105469 35 32 35.894531 32 36.996094 Z M 26 37.003906 C 26 38.105469 25.105469 39 24 39 C 22.894531 39 22 38.105469 22 37.003906 C 22 35.902344 22.894531 35.011719 24 35.011719 C 25.105469 35.011719 26 35.902344 26 37.003906 Z M 20 36.996094 C 20 38.097656 19.105469 38.988281 18 38.988281 C 16.894531 38.988281 16 38.097656 16 36.996094 C 16 35.894531 16.894531 35 18 35 C 19.105469 35 20 35.894531 20 36.996094 Z M 20 36.996094 "/>
    </g>
   </g>
  </g>
 </g>
 <g>
  <g clip-path="url(#3)">
   <g transform="translate(0,-1)">
    <g>
     <path d="M 24 8 C 16.820312 8 11 13.628906 11 20.5625 C 11 24.742188 13.121094 28.40625 16.375 30.6875 C 16.257812 31.167969 16.113281 31.691406 15.875 32.21875 C 15.0625 34.011719 14.25 34 14.25 34 C 14.25 34 16.6875 33.988281 18.3125 33.09375 C 18.65625 32.90625 18.949219 32.621094 19.21875 32.25 C 20.699219 32.816406 22.3125 33.09375 24 33.09375 C 31.179688 33.09375 37 27.496094 37 20.5625 C 37 13.628906 31.179688 8 24 8 Z M 24 13 C 26 13 28 14 28 16 L 28 19 C 29 19 30 19 30 20 L 30 26 C 30 26.589844 29.671875 27 29 27 L 19 27 C 18.328125 27 18 26.589844 18 26 L 18 20 C 18 19 19 19 20 19 L 20 16 C 20 14 22 13 24 13 Z M 24 14 C 22.5 14 21 15 21 17 L 21 19 L 27 19 L 27 17 C 27 15 25.5 14 24 14 Z M 24 14 " fill="#f9f9f9"/>
     <path d="M 32 36.996094 C 32 38.097656 31.105469 38.988281 30 38.988281 C 28.894531 38.988281 28 38.097656 28 36.996094 C 28 35.894531 28.894531 35 30 35 C 31.105469 35 32 35.894531 32 36.996094 Z M 26 37.003906 C 26 38.105469 25.105469 39 24 39 C 22.894531 39 22 38.105469 22 37.003906 C 22 35.902344 22.894531 35.011719 24 35.011719 C 25.105469 35.011719 26 35.902344 26 37.003906 Z M 20 36.996094 C 20 38.097656 19.105469 38.988281 18 38.988281 C 16.894531 38.988281 16 38.097656 16 36.996094 C 16 35.894531 16.894531 35 18 35 C 19.105469 35 20 35.894531 20 36.996094 Z M 20 36.996094 " fill="#99ff66"/>
    </g>
   </g>
  </g>
 </g>
 <g>
  <g transform="translate(0,-1004.3622)">
   <path d="m 1,1043.3622 0,4 c 0,2.216 1.784,4 4,4 l 38,0 c 2.216,0 4,-1.784 4,-4 l 0,-4 c 0,2.216 -1.784,4 -4,4 l -38,0 c -2.216,0 -4,-1.784 -4,-4 z" opacity="0.1"/>
  </g>
 </g>
</svg>

<svg viewBox="0 0 48 48"><defs><linearGradient id="linearGradient3764" x1="1" x2="47" gradientUnits="userSpaceOnUse" gradientTransform="translate(-48.000001,0.00221467)"><stop stop-color="#666" stop-opacity="1"/><stop offset="1" stop-color="#707070" stop-opacity="1"/></linearGradient><clipPath id="clipPath-515020760"><g transform="translate(0,-1004.3622)"><rect rx="4" y="1005.36" x="1" height="46" width="46" fill="#1890d0"/></g></clipPath><clipPath id="clipPath-527959035"><g transform="translate(0,-1004.3622)"><rect rx="4" y="1005.36" x="1" height="46" width="46" fill="#1890d0"/></g></clipPath></defs><g><path d="m 1 43 l 0 0.25 c 0 2.216 1.784 4 4 4 l 38 0 c 2.216 0 4 -1.784 4 -4 l 0 -0.25 c 0 2.216 -1.784 4 -4 4 l -38 0 c -2.216 0 -4 -1.784 -4 -4 z m 0 0.5 l 0 0.5 c 0 2.216 1.784 4 4 4 l 38 0 c 2.216 0 4 -1.784 4 -4 l 0 -0.5 c 0 2.216 -1.784 4 -4 4 l -38 0 c -2.216 0 -4 -1.784 -4 -4 z" opacity="0.02"/><path d="m 1 43.25 l 0 0.25 c 0 2.216 1.784 4 4 4 l 38 0 c 2.216 0 4 -1.784 4 -4 l 0 -0.25 c 0 2.216 -1.784 4 -4 4 l -38 0 c -2.216 0 -4 -1.784 -4 -4 z" opacity="0.05"/><path d="m 1 43 l 0 0.25 c 0 2.216 1.784 4 4 4 l 38 0 c 2.216 0 4 -1.784 4 -4 l 0 -0.25 c 0 2.216 -1.784 4 -4 4 l -38 0 c -2.216 0 -4 -1.784 -4 -4 z" opacity="0.1"/></g><g><rect width="46" height="46" x="-47" y="1" rx="4" transform="matrix(0,-1,1,0,0,0)" fill="url(#linearGradient3764)" fill-opacity="1"/></g><g><g clip-path="url(#clipPath-515020760)"><g opacity="0.1"><!-- color: #707070 --><g><path d="m 24 8 c -7.18 0 -13 5.629 -13 12.563 c 0 4.18 2.121 7.844 5.375 10.125 c -0.117 0.48 -0.262 1 -0.5 1.531 c -0.813 1.793 -1.625 1.781 -1.625 1.781 c 0 0 2.438 -0.012 4.063 -0.906 c 0.344 -0.188 0.637 -0.473 0.906 -0.844 c 1.48 0.566 3.094 0.844 4.781 0.844 c 7.18 0 13 -5.598 13 -12.531 c 0 -6.934 -5.82 -12.563 -13 -12.563 m 0 5 c 2 0 4 1 4 3 l 0 3 c 1 0 2 0 2 1 l 0 6 c 0 0.59 -0.328 1 -1 1 l -10 0 c -0.672 0 -1 -0.41 -1 -1 l 0 -6 c 0 -1 1 -1 2 -1 l 0 -3 c 0 -2 2 -3 4 -3 m 0 1 c -1.5 0 -3 1 -3 3 l 0 2 l 6 0 l 0 -2 c 0 -2 -1.5 -3 -3 -3 m 0 0" fill="#000"/><path d="m 32 36.996 c 0 1.102 -0.895 1.992 -2 1.992 c -1.105 0 -2 -0.891 -2 -1.992 c 0 -1.102 0.895 -1.996 2 -1.996 c 1.105 0 2 0.895 2 1.996 m -6 0.008 c 0 1.102 -0.895 1.996 -2 1.996 c -1.105 0 -2 -0.895 -2 -1.996 c 0 -1.102 0.895 -1.992 2 -1.992 c 1.105 0 2 0.891 2 1.992 m -6 -0.008 c 0 1.102 -0.895 1.992 -2 1.992 c -1.105 0 -2 -0.891 -2 -1.992 c 0 -1.102 0.895 -1.996 2 -1.996 c 1.105 0 2 0.895 2 1.996 m 0 0" fill="#000"/></g></g></g></g><g><g clip-path="url(#clipPath-527959035)"><g transform="translate(0,-1)"><!-- color: #707070 --><g><path d="m 24 8 c -7.18 0 -13 5.629 -13 12.563 c 0 4.18 2.121 7.844 5.375 10.125 c -0.117 0.48 -0.262 1 -0.5 1.531 c -0.813 1.793 -1.625 1.781 -1.625 1.781 c 0 0 2.438 -0.012 4.063 -0.906 c 0.344 -0.188 0.637 -0.473 0.906 -0.844 c 1.48 0.566 3.094 0.844 4.781 0.844 c 7.18 0 13 -5.598 13 -12.531 c 0 -6.934 -5.82 -12.563 -13 -12.563 m 0 5 c 2 0 4 1 4 3 l 0 3 c 1 0 2 0 2 1 l 0 6 c 0 0.59 -0.328 1 -1 1 l -10 0 c -0.672 0 -1 -0.41 -1 -1 l 0 -6 c 0 -1 1 -1 2 -1 l 0 -3 c 0 -2 2 -3 4 -3 m 0 1 c -1.5 0 -3 1 -3 3 l 0 2 l 6 0 l 0 -2 c 0 -2 -1.5 -3 -3 -3 m 0 0" fill="#f9f9f9"/><path d="m 32 36.996 c 0 1.102 -0.895 1.992 -2 1.992 c -1.105 0 -2 -0.891 -2 -1.992 c 0 -1.102 0.895 -1.996 2 -1.996 c 1.105 0 2 0.895 2 1.996 m -6 0.008 c 0 1.102 -0.895 1.996 -2 1.996 c -1.105 0 -2 -0.895 -2 -1.996 c 0 -1.102 0.895 -1.992 2 -1.992 c 1.105 0 2 0.891 2 1.992 m -6 -0.008 c 0 1.102 -0.895 1.992 -2 1.992 c -1.105 0 -2 -0.891 -2 -1.992 c 0 -1.102 0.895 -1.996 2 -1.996 c 1.105 0 2 0.895 2 1.996 m 0 0" fill="#9f6"/></g></g></g></g><g><g transform="translate(0,-1004.3622)"><path d="m 1 1043.36 0 4 c 0 2.216 1.784 4 4 4 l 38 0 c 2.216 0 4 -1.784 4 -4 l 0 -4 c 0 2.216 -1.784 4 -4 4 l -38 0 c -2.216 0 -4 -1.784 -4 -4 z" opacity="0.1"/></g></g></svg>
